X: 42917
T: Will You Lend Me Your Loom Lass
R: strathspey
M: 4/4
K: Gmajor
B2|AG FE E2 Bd|e4 g<ed<B|d4 edBA|B3 e dBAB|
AG FE E2 Bd|e4 g<ed<B|g>aba g<ed<B|A4 GA:|
|:B2|AG FE E3 F|G3 A B2 AG|B2 A2 A3 d|BABd ede/f/g|
G2 FE E3 F|G3 A B2 AG|ABg/f/e dBAG|A4 zG:|
B2|:GAGF E2 (3BAB|eBgf fedB|dAfe ed (3BAB|B3 e dBAB|
G>AGF E2 (3BAB|eBgf e>fga|b>age d<B A<G|1 A4 agab:|2 A4 z2||
b2|:gfe^d e3 f|gBdg b2 ag|c'>ba^g a3 e|c'>ba^g a2 (3abc'|
gfe^d eBfB|gGBd b2 ag|a>gab g<ed<B|1 A3 b abga:|2 A4 z2||

